packages/ui/assets/svg/upcoming_optimism.svg

<svg class="icon-size" width="30" height="30" viewBox="0 0 30 30" fill="none" xmlns="http://www.w3.org/2000/svg">
<g id="optimism">
<path id="Ellipse 11" d="M15 30C23.2843 30 30 23.2843 30 15C30 6.71573 23.2843 0 15 0C6.71573 0 0 6.71573 0 15C0 23.2843 6.71573 30 15 30Z" fill="#FF0420"></path>
<path id="Path 139" d="M10.6232 18.9779C9.84275 19.0112 9.07262 18.79 8.42878 18.3477C8.15063 18.1352 7.92842 17.8582 7.78138 17.5406C7.63433 17.223 7.56688 16.8744 7.58484 16.5248C7.58827 16.3212 7.60709 16.118 7.64115 15.9172C7.73869 15.3762 7.87746 14.7273 8.05746 13.9704C8.56763 11.9073 9.88419 10.8757 12.0071 10.8757C12.5392 10.867 13.0676 10.9666 13.56 11.1683C13.9971 11.3397 14.3732 11.6374 14.6403 12.0236C14.9095 12.4215 15.0471 12.8938 15.0337 13.3741C15.0298 13.574 15.011 13.7733 14.9774 13.9704C14.8648 14.6381 14.7298 15.287 14.5724 15.9172C14.3101 16.9449 13.8562 17.7138 13.2108 18.224C12.5661 18.7266 11.7035 18.9779 10.6232 18.9779ZM10.7808 17.3574C11.1706 17.3682 11.5508 17.2362 11.85 16.9861C12.1806 16.6863 12.4056 16.2876 12.4913 15.8496C12.6639 15.1447 12.7951 14.5295 12.8848 14.0041C12.9149 13.8445 12.93 13.6825 12.9298 13.5202C12.9298 12.8374 12.5734 12.4961 11.8608 12.4962C11.4679 12.4868 11.0847 12.6185 10.7806 12.8675C10.456 13.1706 10.2355 13.5683 10.1503 14.0041C10.0153 14.5067 9.88025 15.1219 9.74533 15.8496C9.7148 16.0053 9.69973 16.1636 9.70033 16.3222C9.70033 17.0124 10.0605 17.3574 10.7808 17.3574Z" fill="white"></path>
<path id="Path 140" d="M15.552 18.8656C15.5163 18.8677 15.4805 18.8617 15.4474 18.848C15.4143 18.8344 15.3846 18.8135 15.3607 18.7869C15.3233 18.7264 15.3112 18.6536 15.327 18.5843L16.8799 11.2697C16.8936 11.189 16.9376 11.1165 17.0028 11.067C17.0631 11.0173 17.1386 10.9895 17.2168 10.9884H20.2101C20.9149 10.9538 21.6135 11.1343 22.2133 11.506C22.4598 11.6675 22.6601 11.8905 22.7943 12.1529C22.9285 12.4154 22.992 12.7083 22.9785 13.0028C22.9774 13.1998 22.9547 13.396 22.9109 13.588C22.7868 14.3462 22.3808 15.0295 21.7743 15.5011C21.2117 15.9138 20.439 16.1201 19.4562 16.1201H17.9373L17.4196 18.5845C17.4059 18.6652 17.3619 18.7376 17.2967 18.7871C17.2365 18.8368 17.1611 18.8646 17.083 18.8658L15.552 18.8656ZM19.5356 14.5667C19.8305 14.5732 20.1193 14.4823 20.3572 14.308C20.602 14.1283 20.7706 13.8633 20.8298 13.5654C20.8507 13.454 20.862 13.3411 20.8635 13.2278C20.8699 13.1363 20.8561 13.0444 20.823 12.9589C20.7899 12.8733 20.7385 12.796 20.6722 12.7325C20.4844 12.5939 20.2519 12.5297 20.0196 12.5525H18.6693L18.2417 14.5667H19.5356Z" fill="white"></path>
</g>
</svg>

<svg class="icon-size" width="30" height="30" viewBox="0 0 30 30" fill="none" xmlns="http://www.w3.org/2000/svg"><path d="M15 30c8.284 0 15-6.716 15-15 0-8.284-6.716-15-15-15C6.716 0 0 6.716 0 15c0 8.284 6.716 15 15 15Z" fill="#FF0420"/><path d="M10.623 18.978a3.604 3.604 0 0 1-2.194-.63 2.155 2.155 0 0 1-.844-1.823c.003-.204.022-.407.056-.608.098-.54.236-1.19.416-1.947.51-2.063 1.827-3.094 3.95-3.094.532-.009 1.06.09 1.553.292.437.172.813.47 1.08.856.27.398.407.87.394 1.35-.004.2-.023.4-.057.596a25.6 25.6 0 0 1-.405 1.947c-.262 1.028-.716 1.797-1.361 2.307-.645.503-1.508.754-2.588.754Zm.158-1.62c.39.01.77-.122 1.069-.372.33-.3.556-.698.641-1.136.173-.705.304-1.32.394-1.846.03-.16.045-.322.045-.484 0-.683-.357-1.024-1.07-1.024a1.643 1.643 0 0 0-1.08.371c-.324.304-.544.701-.63 1.137-.135.503-.27 1.118-.405 1.846-.03.155-.045.314-.045.472 0 .69.36 1.035 1.08 1.035ZM15.552 18.866a.237.237 0 0 1-.191-.08.27.27 0 0 1-.034-.202l1.553-7.314a.322.322 0 0 1 .123-.203.344.344 0 0 1 .214-.079h2.993a3.479 3.479 0 0 1 2.003.518 1.698 1.698 0 0 1 .765 1.497 2.699 2.699 0 0 1-.067.585 3.047 3.047 0 0 1-1.137 1.913c-.562.413-1.335.62-2.318.62h-1.519l-.517 2.463a.322.322 0 0 1-.123.203.344.344 0 0 1-.214.079h-1.531Zm3.984-4.3a1.34 1.34 0 0 0 .821-.258c.245-.18.414-.445.473-.743.02-.111.032-.224.034-.337a.624.624 0 0 0-.192-.495.944.944 0 0 0-.652-.18h-1.35l-.428 2.014h1.294Z" fill="#fff"/></svg>
